X: 1
T: I'll Fly Away
C:
R: song, march
S: Fiddle Hell Online 2022-4-3 handout for Ellen Carlson's chord analysis workshop
Z: 2022 John Chambers <jc:trillian.mit.edu>
M: C|
L: 1/8
K: G
z2 (3GGG G2A2 |\
"G"B4 G4 | D4 G4 | B2A2 B2c2 | B6 A2 | "C"G8- | G4 E2G2 | "G"D8- | D2 (3GGG G2A2 |
"G"B4 G4 | D4 G4 | B2A2 B2c2 | B4 G2A2 | B8 | "D"A4 B2A2 | "G"G8- | G8 |]
